X:1
T: John Begg
C:Alexander Walker
R:Strathspey
Q: 128
K:F
M:4/4
L:1/16
|:A2|FF3 c3F d3F A3f|FF3 A3F G6f2|FF3 A3F f3a g3a|c3A f3A G4 G2A2|
FF3 c3F d3F A3f|FF3 A3F G6f2|FF3 A3F f3a g3a|c3A f3A G4 G2a2|
f3c d3f c3A F3A|G3F A3C D4 D3a|f3c d3f cA3 F3A|B3G c3C F4 F3f|
a3f g3a f3c d3f|c3A f3A G6A2|D3F C3F B,3D A,3C|DG3 G3E F4 F2:|
